X: 38459
T: Stay A Wee Bit Bonny Lad
R: reel
M: 4/4
K: Dmajor
DFAF dF~E2|DFAA {c}BABd|GeFd eF~E2|DFAd {c}BABd:|
~a3b afdf|adab abaf|~a3b afdf|dG~G2 {c}BABd|
~a3b afdf|adab abaf|gbaf edef|dG~G2 {c}BABd||

